public/icons/download-icon.svg

<svg width="3em" height="3em" viewBox="0 0 24 24" fill="none" xmlns="http://www.w3.org/2000/svg">
<g id="SVGRepo_bgCarrier" stroke-width="0"/>
<g id="SVGRepo_tracerCarrier" stroke-linecap="round" stroke-linejoin="round"/>
<g id="SVGRepo_iconCarrier"> <path d="M13.5 3H12H8C6.34315 3 5 4.34315 5 6V18C5 19.6569 6.34315 21 8 21H12M13.5 3L19 8.625M13.5 3V7.625C13.5 8.17728 13.9477 8.625 14.5 8.625H19M19 8.625V11.8125" stroke="#61DAFB" stroke-width="2" stroke-linecap="round" stroke-linejoin="round"/> <path d="M17.5 15V21M17.5 21L15 18.5M17.5 21L20 18.5" stroke="#61DAFB" stroke-width="2" stroke-linecap="round" stroke-linejoin="round"/> </g>
</svg>

<svg xmlns="http://www.w3.org/2000/svg" width="3em" height="3em" fill="none" viewBox="0 0 24 24"><g stroke="#61DAFB" stroke-linecap="round" stroke-linejoin="round" stroke-width="2"><path d="M13.5 3H8a3 3 0 0 0-3 3v12a3 3 0 0 0 3 3h4m1.5-18L19 8.625M13.5 3v4.625a1 1 0 0 0 1 1H19m0 0v3.188M17.5 15v6m0 0L15 18.5m2.5 2.5 2.5-2.5"/></g></svg>
